!!!COM: Palestrina, Giovanni Perluigi da
!!!OPR: Veni sponsa Christi
!!!OTL: Kyrie
**kern	**kern	**kern	**kern
*ICvox	*ICvox	*ICvox	*ICvox
*Ibass	*Itenor	*Icalto	*Icant
!Bassus	!Tenor	!Altus	!Cantus
*clefF4	*clefGv2	*clefG2	*clefG2
*k[]	*k[]	*k[]	*k[]
*G:mix	*G:mix	*G:mix	*G:mix
*M4/2	*M4/2	*M4/2	*M4/2
=1	=1	=1	=1
0r	0r	0r	0dd
=2	=2	=2	=2
0r	0r	0g	1b
.	.	.	1dd
=3	=3	=3	=3
0r	0r	1e	1ee
.	.	1g	2.dd
.	.	.	4b
=4	=4	=4	=4
0r	0r	1a	4cc
.	.	.	4dd
.	.	.	2.ee
.	.	2.g	.
.	.	.	4dd
.	.	.	4b
.	.	4e	4cc
=5	=5	=5	=5
0r	0r	4f	2dd
.	.	4g	.
.	.	2.a	4cc
.	.	.	4b
.	.	.	2.cc
.	.	4g	.
.	.	2e	.
.	.	.	4b
=6	=6	=6	=6
0r	0d	2f#	2a
.	.	1g	2g
.	.	.	1a
.	.	2f#	.
=7	=7	=7	=7
0G	1B	[0g	2g
.	.	.	2dd
.	1d	.	2b
.	.	.	[2dd
=8	=8	=8	=8
1E	1e	0g]	4dd]
.	.	.	4cc
.	.	.	2cc
1G	2.d	.	4b
.	.	.	4a
.	.	.	4g
.	4B	.	4f
=9	=9	=9	=9
1A	4c	2r	2.e
.	4d	.	.
.	2.e	2c	.
.	.	.	4f
2.G	.	2B	1g
.	4d	.	.
.	4B	2A	.
4E	4c	.	.
=10	=10	=10	=10
4F	2d	4A	1r
4G	.	4B	.
2.A	4c	4c	.
.	4B	4d	.
.	[1c	1e	2r
4G	.	.	.
2E	.	.	2g
=11	=11	=11	=11
2F	2c]	1d	2a
1G	2B	.	2b
.	1A	1r	2cc
2F#	.	.	[2dd
=12	=12	=12	=12
1.G	1G	2r	4dd]
.	.	.	4cc
.	.	2d	4b
.	.	.	4a
.	1r	2e	2.g
2F	.	2f	.
.	.	.	4a
=13	=13	=13	=13
2E	0r	2g	2b
2A	.	2.a	2cc
1D	.	.	2a
.	.	4g	.
.	.	4f	[2dd
.	.	4e	.
=14	=14	=14	=14
1G	2r	2.d	4dd]
.	.	.	4cc
.	2G	.	2b
.	.	4e	.
1r	2A	2f#	2a
.	2B	[2g	2g
=15	=15	=15	=15
1r	2c	2g]	1a
.	2.d	4f#	.
.	.	4e	.
1D	.	1f#	2.dd
.	4c	.	.
.	4B	.	.
.	4A	.	4cc
=16	=16	=16	=16
2E	2G	2g	2b
2F	2c	2f	2a
2G	2B	2.e	2g
[2A	2A	.	[2cc
.	.	4d	.
=17	=17	=17	=17
4A]	1c	2e	4cc]
4G	.	.	4b
4F	.	2.f	4a
4E	.	.	4g
1D	2.d	.	4f
.	.	4e	4g
.	.	[2d	[2a
.	4c	.	.
=18	=18	=18	=18
1E	2B	2d]	4a]
.	.	.	4g
.	4A	2c#	1g
.	4G	.	.
1D	1A	1d	.
.	.	.	2f#
=19	=19	=19	=19
0G	0G	0d	0g
=20	=20	=20	=20
0r	0r	1r	1.dd
.	.	1g	.
.	.	.	2b
=21	=21	=21	=21
0r	0r	2a	2cc
.	.	2b-	2dd
.	.	2a	[1cc
.	.	4f	.
.	.	4g	.
=22	=22	=22	=22
0r	0r	4a	1cc]
.	.	4b	.
.	.	1cc	.
.	.	.	2.g
.	.	2b	.
.	.	.	4a
=23	=23	=23	=23
0r	0r	4g	4b
.	.	4a	4cc
.	.	4b	2dd
.	.	4g	.
.	.	2a	2cc
.	.	[2g	2b
=24	=24	=24	=24
1r	1.d	2g]	1a
.	.	2f#	.
1G	.	1g	1b
.	2B	.	.
=25	=25	=25	=25
2A	2c	2r	0r
2B-	2d	2d	.
2A	[1c	2e	.
4F	.	2f	.
4G	.	.	.
=26	=26	=26	=26
4A	1c]	2.e	0r
4B	.	.	.
1c	.	.	.
.	.	4e	.
.	1G	2d	.
2B	.	[2g	.
=27	=27	=27	=27
1c	1r	2g]	2r
.	.	2e	2g
1r	2r	2f	2a
.	2G	2g	2b-
=28	=28	=28	=28
0r	2A	0f	2a
.	2B-	.	4f
.	.	.	4g
.	2A	.	4a
.	.	.	4b
.	4F	.	[2cc
.	4G	.	.
=29	=29	=29	=29
0r	4A	2.c	4cc]
.	4B	.	4b
.	1c	.	2.g
.	.	4d	.
.	.	4e	.
.	.	4f	4a
.	2G	[2g	2b
=30	=30	=30	=30
2r	1d	2g]	1a
1d	.	4f	.
.	.	4e	.
.	2r	2f	1r
2B	2d	2g	.
=31	=31	=31	=31
2c	2e	2.a	2r
2d	2f	.	2dd
.	.	4b	.
[1c	2e	1cc	2ee
.	4c	.	[2gg
.	4d	.	.
=32	=32	=32	=32
1c]	4e	1g	4gg]
.	4f	.	4ff
.	2.g	.	2ee
[1G	.	1r	2dd
.	4f	.	.
.	2e	.	[2cc
=33	=33	=33	=33
1G]	2d	1.g	2cc]
.	1e	.	4b
.	.	.	4a
1r	.	.	2b
.	2c	2e	2cc
=34	=34	=34	=34
0r	2d	2f	2a
.	2e	2g	2g
.	2d	1f	1a
.	[2f	.	.
=35	=35	=35	=35
1r	2f]	1c	2g
.	2e	.	1cc
[1G	2.d	1r	.
.	.	.	4b
.	4c	.	4a
=36	=36	=36	=36
2G]	2d	1g	1b
2E	2e	.	.
2F	2.d	2a	2r
2G	.	2b-	2g
.	4e	.	.
=37	=37	=37	=37
0F	0f	2a	2.a
.	.	4f	.
.	.	4g	4b
.	.	4a	2cc
.	.	4b	.
.	.	[2cc	4a
.	.	.	4b
=38	=38	=38	=38
1C	2.e	4cc]	4cc
.	.	4b	4dd
.	.	4g	2ee
.	4f	4a	.
1r	2g	2b	2dd
.	2a	[2cc	2cc
=39	=39	=39	=39
1r	2f	2cc]	0dd
.	1g	2b	.
[1d	.	[1a	.
.	4f#	.	.
.	4e	.	.
=40	=40	=40	=40
2d]	2f#	2a]	2r
2B	2g	2b	2dd
2c	2r	1a	2ee
2d	2f	.	2ff
=41	=41	=41	=41
0c	2g	0cc	2ee
.	2a	.	4cc
.	.	.	4dd
.	2g	.	4ee
.	.	.	4ff
.	4e	.	[2gg
.	4f	.	.
=42	=42	=42	=42
[0G	4g	1.b	4gg]
.	4a	.	4ff
.	2.g	.	2ee
.	.	.	2dd
.	4f	.	.
.	2e	2g	[2cc
=43	=43	=43	=43
1G]	1d	0g	2cc]
.	.	.	2b
1C	1e	.	1cc
=44	=44	=44	=44
0G	0d	0g	0b
=45	=45	=45	=45
0r	1r	1g	0r
.	1c	2g	.
.	.	2g	.
=46	=46	=46	=46
0r	2c	2e	0r
.	2c	2g	.
.	2A	4f	.
.	.	4e	.
.	2c	[2a	.
=47	=47	=47	=47
0r	1B	2a]	1r
.	.	2g	.
.	2.A	2f	1cc
.	.	4e	.
.	4B	4d	.
=48	=48	=48	=48
0r	1c	4e	2cc
.	.	4f	.
.	.	4g	2cc
.	.	4e	.
.	2d	4f	2a
.	.	4g	.
.	2A	[2a	2cc
=49	=49	=49	=49
1r	1e	2a]	1b
.	.	2g#	.
1c	4A	1a	2a
.	4B	.	.
.	4c	.	2ee
.	4d	.	.
=50	=50	=50	=50
2c	4e	1g	2ee
.	4f	.	.
2c	2g	.	2ee
2A	4f	1r	2.cc
.	4e	.	.
2c	[2a	.	.
.	.	.	4ee
=51	=51	=51	=51
1B	2a]	1r	1dd
.	2g#	.	.
1A	1a	2r	2cc
.	.	2cc	[2ee
=52	=52	=52	=52
0r	2r	2cc	2ee]
.	2f	2cc	2a
.	2f	2a	4cc
.	.	.	4b
.	2f	2cc	[2a
=53	=53	=53	=53
1r	2d	1b	2a]
.	2e	.	2g#
1F	2.f	2a	2a
.	.	2a	[2ff
.	4e	.	.
=54	=54	=54	=54
2F	4d	2a	4ff]
.	4c	.	4ee
2F	2.f	2a	2cc
2D	.	2f	1dd
.	4e	.	.
2F	[2d	2a	.
=55	=55	=55	=55
1E	2d]	1g	1ee
.	2c#	.	.
1D	4d	2f	1a
.	4e	.	.
.	4f	[2d	.
.	4d	.	.
=56	=56	=56	=56
1A	1e	2d]	2r
.	.	2c	1a
1B-	1r	2d	.
.	.	2d	2g
=57	=57	=57	=57
2A	0r	1.f	2a
4F	.	.	2a
4G	.	.	.
4A	.	.	[1cc
4B	.	.	.
2c	.	2e	.
=58	=58	=58	=58
1G	1r	2.d	2cc]
.	.	.	2b
.	.	4e	.
1A	2r	4f	4a
.	.	4g	4b
.	[2A	4a	4cc
.	.	4b	4dd
=59	=59	=59	=59
0r	2A]	2cc	4ee
.	.	.	4ff
.	2G	2b	2gg
.	2A	[1a	2ff
.	2A	.	4ee
.	.	.	4dd
=60	=60	=60	=60
0r	1.c	2a]	4ee
.	.	.	4ff
.	.	4g	1ee
.	.	4f	.
.	.	4g	.
.	.	4f	.
.	2B	4e	[2dd
.	.	4d	.
=61	=61	=61	=61
1r	[0A	1e	2dd]
.	.	.	2cc
[1D	.	2d	2.ff
.	.	[2f	.
.	.	.	4ee
=62	=62	=62	=62
2D]	1A]	2f]	2dd
2C	.	2e	2ee
2D	2r	2.f	1a
2D	[2d	.	.
.	.	4g	.
=63	=63	=63	=63
1.F	2d]	1a	2r
.	2c	.	1a
.	2d	1r	.
2E	2e	.	2g
=64	=64	=64	=64
1D	1.f	2r	2a
.	.	1a	2a
1C	.	.	[1cc
.	2e	2g	.
=65	=65	=65	=65
2F	1d	2a	2cc]
2G	.	2b	2b
2.A	[1c	2.cc	1a
4G	.	4b	.
=66	=66	=66	=66
2F	2c]	2a	0dd
2G	2B	1g	.
1D	1A	.	.
.	.	2f#	.
=67	=67	=67	=67
0G	0B	0g	0b
==	==	==	==
*-	*-	*-	*-
!!!CDT: 1525/^1526/-1594/2/2
!!!OCY: Italia
!!!AGN: Mass (Parody)
!!!AST: renaissance, vocal
!!!ASW: Motet 1563 (Palestrina)
!!!PWK: Masses, Book 9
!!!RNB: Cadence finals: G
!!!YOR: Le Opere Complete, v. 25, p. 30
!!!YOO: Rome, Italy: Fratelli Scalera
!!!END: 1992//
!!!EED: John Miller
!!!YEC: Copyright 2000, John Miller
!!!YEN: United States of America
!!!YEM: Rights to all derivative electronic formats reserved.
!!!YEM: Refer to licensing agreement for further details.
!!!YEM: This file must be accompanied by the licensing agreement.
!!!YEM: A copy of the licensing agreement may be found at http://www.music-cog.ohio-state.edu/HumdrumDatabases/Palestrina/license.txt
!!!EMD: converted to Humdrum by Bret Aarden
